flaticon/medical/periodontal-scaler.svg

<svg xmlns="http://www.w3.org/2000/svg" width="32" height="32" viewBox="0 0 24 24">
    <path d="M 23.402344 0.625 C 23.003906 0.226562 22.386719 0 21.707031 0 C 21.03125 0 20.414062 0.226562 20.015625 0.625 C 19.476562 1.164062 19.210938 1.894531 19.265625 2.6875 C 19.300781 3.207031 19.472656 3.710938 19.742188 4.109375 L 16.566406 7.285156 L 15.53125 7.046875 C 15.0625 6.9375 14.578125 7.078125 14.238281 7.417969 L 1.054688 20.601562 C 0.679688 20.976562 0.472656 21.476562 0.472656 22.007812 C 0.472656 22.539062 0.679688 23.042969 1.054688 23.417969 C 1.445312 23.804688 1.957031 24 2.464844 24 C 2.976562 24 3.484375 23.804688 3.875 23.417969 L 18.113281 9.179688 C 18.363281 8.925781 18.460938 8.558594 18.363281 8.21875 C 18.265625 7.875 17.988281 7.613281 17.640625 7.535156 L 17.546875 7.511719 L 20.921875 4.136719 L 20.617188 3.835938 C 20.34375 3.558594 20.152344 3.097656 20.117188 2.628906 C 20.089844 2.246094 20.15625 1.691406 20.617188 1.230469 C 21.082031 0.769531 22.125 0.734375 22.671875 1.125 L 22.671875 3.0625 C 22.671875 3.300781 22.863281 3.492188 23.101562 3.492188 C 23.335938 3.492188 23.527344 3.300781 23.527344 3.0625 L 23.527344 0.75 Z M 6.195312 19.886719 L 5.191406 17.675781 L 6.207031 16.660156 L 7.210938 18.871094 Z M 4.535156 21.546875 L 3.53125 19.335938 L 4.546875 18.320312 L 5.550781 20.53125 Z M 3.269531 22.8125 C 2.824219 23.257812 2.105469 23.257812 1.660156 22.8125 C 1.445312 22.597656 1.328125 22.3125 1.328125 22.007812 C 1.328125 21.707031 1.445312 21.417969 1.660156 21.203125 L 2.886719 19.980469 L 3.890625 22.191406 Z M 17.507812 8.574219 L 7.855469 18.226562 L 6.851562 16.015625 L 14.84375 8.023438 C 14.945312 7.921875 15.078125 7.867188 15.21875 7.867188 C 15.257812 7.867188 15.296875 7.871094 15.339844 7.878906 L 16.515625 8.152344 C 16.570312 8.175781 16.632812 8.191406 16.691406 8.191406 L 17.449219 8.367188 C 17.507812 8.378906 17.53125 8.421875 17.539062 8.453125 C 17.550781 8.484375 17.550781 8.53125 17.507812 8.574219 Z M 17.507812 8.574219"/>
</svg>

<svg xmlns="http://www.w3.org/2000/svg" width="32" height="32" viewBox="0 0 24 24">
    <path d="M23.402.625C23.004.227 22.387 0 21.707 0c-.676 0-1.293.227-1.691.625-.54.54-.805 1.27-.75 2.063.035.519.207 1.023.476 1.421l-3.176 3.176-1.035-.238a1.378 1.378 0 0 0-1.293.371L1.055 20.602a1.977 1.977 0 0 0-.582 1.406A1.986 1.986 0 0 0 2.465 24c.512 0 1.02-.195 1.41-.582L18.113 9.18a.985.985 0 0 0 .25-.961.973.973 0 0 0-.722-.684l-.094-.023 3.375-3.375-.305-.301c-.273-.277-.465-.738-.5-1.207-.027-.383.04-.938.5-1.399.465-.46 1.508-.496 2.055-.105v1.938a.428.428 0 1 0 .855 0V.75zM6.195 19.887l-1.004-2.211 1.016-1.016 1.004 2.211zm-1.66 1.66l-1.004-2.211 1.016-1.016 1.004 2.211zM3.27 22.812a1.136 1.136 0 0 1-1.942-.804c0-.301.117-.59.332-.805l1.227-1.223 1.004 2.211zM17.508 8.575l-9.653 9.653-1.003-2.211 7.992-7.993a.526.526 0 0 1 .375-.156c.039 0 .078.004.12.012l1.177.273a.46.46 0 0 0 .175.04l.758.175a.112.112 0 0 1 .09.086c.012.031.012.078-.031.121zm0 0"/>
</svg>
